; generated by Slic3r Prusa Edition 1.39.1-prusa3d-linux64 on 2018-04-06 at 15:52:38

; 

; external perimeters extrusion width = 0.45mm
; perimeters extrusion width = 0.45mm
; infill extrusion width = 0.45mm
; solid infill extrusion width = 0.45mm
; top infill extrusion width = 0.40mm
; first layer extrusion width = 0.40mm

M107
M190 S40 ; set bed temperature and wait for it to be reached
M104 S235 ; set temperature
G28 ; home all axes
G1 Z5 F5000 ; lift nozzle
; Filament gcode
M109 S235 ; set temperature and wait for it to be reached
G21 ; set units to millimeters
G90 ; use absolute coordinates
M82 ; use absolute distances for extrusion
G92 E0
G1 Z0.200 F4800.000
G1 E-2.00000 F2400.00000
G92 E0
G1 X77.145 Y77.859 F4800.000
G1 E2.00000 F2400.00000
G1 F1800
G1 X79.365 Y75.736 E2.09118
G1 X80.680 Y74.604 E2.14271
G1 X82.079 Y73.490 E2.19582
G1 X84.584 Y71.705 E2.28714
G1 X87.592 Y69.871 E2.39175
G1 X90.325 Y68.463 E2.48302
G1 X91.920 Y67.744 E2.53498
G1 X93.575 Y67.074 E2.58797
G1 X96.572 Y66.044 E2.68207
G1 X98.274 Y65.560 E2.73463
G1 X101.240 Y64.882 E2.82497
G1 X104.755 Y64.340 E2.93056
G1 X107.829 Y64.091 E3.02212
G1 X109.621 Y64.041 E3.07536
G1 X112.764 Y64.123 E3.16870
G1 X114.494 Y64.260 E3.22023
G1 X116.249 Y64.468 E3.27269
G1 X119.302 Y64.992 E3.36466
G1 X122.699 Y65.831 E3.46858
G1 X125.621 Y66.778 E3.55976
G1 X127.275 Y67.411 E3.61236
G1 X130.197 Y68.717 E3.70737
G1 X131.766 Y69.522 E3.75973
G1 X133.309 Y70.391 E3.81234
G1 X135.897 Y72.033 E3.90333
G1 X138.716 Y74.118 E4.00744
G1 X141.069 Y76.135 E4.09945
G1 X142.330 Y77.337 E4.15117
G1 X143.557 Y78.599 E4.20344
G1 X145.599 Y80.935 E4.29555
G1 X147.727 Y83.756 E4.40048
G1 X149.392 Y86.329 E4.49148
G1 X150.262 Y87.840 E4.54325
G1 X151.692 Y90.666 E4.63728
G1 X152.407 Y92.287 E4.68988
G1 X153.063 Y93.949 E4.74294
G1 X154.034 Y96.845 E4.83361
G1 X154.918 Y100.285 E4.93907
G1 X155.467 Y103.311 E5.03039
G1 X155.689 Y105.039 E5.08210
G1 X155.846 Y106.814 E5.13503
G1 X155.957 Y109.966 E5.22869
G1 X155.923 Y111.755 E5.28180
G1 X155.706 Y114.795 E5.37228
G1 X155.202 Y118.293 E5.47721
G1 X154.548 Y121.292 E5.56836
G1 X154.074 Y123.023 E5.62166
G1 X153.540 Y124.708 E5.67415
G1 X152.432 Y127.653 E5.76754
G1 X151.710 Y129.296 E5.82084
G1 X150.327 Y132.041 E5.91211
G1 X148.531 Y135.047 E6.01607
G1 X146.774 Y137.564 E6.10721
G1 X145.670 Y138.980 E6.16051
G1 X143.605 Y141.349 E6.25384
G1 X142.377 Y142.617 E6.30626
G1 X141.100 Y143.836 E6.35867
G1 X138.767 Y145.841 E6.44999
G1 X135.928 Y147.945 E6.55492
G1 X133.313 Y149.607 E6.64690
G1 X131.775 Y150.473 E6.69932
G1 X128.930 Y151.879 E6.79354
G1 X127.330 Y152.567 E6.84525
G1 X125.687 Y153.199 E6.89753
G1 X122.756 Y154.153 E6.98903
G1 X119.304 Y155.008 E7.09463
G1 X116.306 Y155.525 E7.18497
G1 X114.553 Y155.734 E7.23738
G1 X112.800 Y155.874 E7.28960
G1 X109.646 Y155.959 E7.38328
G1 X107.853 Y155.910 E7.43652
G1 X104.766 Y155.661 E7.52849
G1 X101.299 Y155.129 E7.63263
G1 X98.284 Y154.442 E7.72442
G1 X96.601 Y153.965 E7.77638
G1 X93.579 Y152.927 E7.87125
G1 X91.938 Y152.264 E7.92380
G1 X90.319 Y151.534 E7.97653
G1 X87.503 Y150.080 E8.07062
G1 X86.001 Y149.198 E8.12234
G1 X83.443 Y147.512 E8.21333
G1 X80.621 Y145.347 E8.31892
G1 X78.317 Y143.297 E8.41048
G1 X77.071 Y142.067 E8.46246
G1 X75.880 Y140.794 E8.51423
G1 X73.896 Y138.444 E8.60555
G1 X71.804 Y135.566 E8.71119
G1 X70.197 Y132.984 E8.80149
G1 X69.342 Y131.438 E8.85395
G1 X68.551 Y129.862 E8.90630
G1 X67.279 Y126.956 E9.00048
G1 X66.659 Y125.302 E9.05294
G1 X65.733 Y122.369 E9.14426
G1 X64.909 Y118.914 E9.24972
G1 X64.418 Y115.901 E9.34034
G1 X64.224 Y114.152 E9.39261
G1 X64.100 Y112.391 E9.44502
G1 X64.042 Y109.300 E9.53680
G1 X64.230 Y105.797 E9.64096
G1 X64.616 Y102.724 E9.73293
G1 X64.929 Y100.982 E9.78548
G1 X65.308 Y99.264 E9.83770
G1 X66.119 Y96.325 E9.92824
G1 X67.309 Y92.969 E10.03396
G1 X68.540 Y90.160 E10.12501
G1 X69.318 Y88.609 E10.17654
G1 X70.168 Y87.067 E10.22881
G1 X71.809 Y84.427 E10.32111
G1 X72.859 Y82.925 E10.37553
G1 X74.771 Y80.480 E10.46769
G1 X77.105 Y77.903 E10.57090
G1 X77.369 Y78.142 F4800.000
G1 F1800
G1 X79.602 Y76.003 E10.66272
G1 X80.905 Y74.881 E10.71377
G1 X82.292 Y73.777 E10.76642
G1 X84.786 Y72.000 E10.85734
G1 X87.762 Y70.185 E10.96083
G1 X90.482 Y68.783 E11.05171
G1 X92.057 Y68.074 E11.10299
G1 X93.697 Y67.410 E11.15552
G1 X96.673 Y66.386 E11.24897
G1 X98.360 Y65.907 E11.30104
G1 X101.314 Y65.232 E11.39099
G1 X104.791 Y64.695 E11.49545
G1 X107.845 Y64.448 E11.58643
G1 X109.620 Y64.399 E11.63914
G1 X112.748 Y64.480 E11.73206
G1 X114.456 Y64.615 E11.78293
G1 X116.195 Y64.821 E11.83492
G1 X119.235 Y65.343 E11.92650
G1 X122.596 Y66.172 E12.02928
G1 X125.504 Y67.115 E12.12007
G1 X127.138 Y67.741 E12.17201
G1 X130.045 Y69.040 E12.26655
G1 X131.600 Y69.838 E12.31843
G1 X133.124 Y70.696 E12.37038
G1 X135.701 Y72.331 E12.46098
G1 X138.489 Y74.394 E12.56395
G1 X140.832 Y76.402 E12.65558
G1 X142.077 Y77.588 E12.70663
G1 X143.293 Y78.839 E12.75844
G1 X145.326 Y81.164 E12.85015
G1 X147.426 Y83.948 E12.95369
G1 X149.089 Y86.518 E13.04456
G1 X149.948 Y88.009 E13.09567
G1 X151.370 Y90.821 E13.18922
G1 X152.076 Y92.422 E13.24116
G1 X152.729 Y94.075 E13.29395
G1 X153.693 Y96.952 E13.38403
G1 X154.568 Y100.355 E13.48836
G1 X155.114 Y103.362 E13.57910
G1 X155.333 Y105.074 E13.63033
G1 X155.490 Y106.842 E13.68304
G1 X155.600 Y109.970 E13.77597
G1 X155.567 Y111.743 E13.82861
G1 X155.340 Y114.862 E13.92147
G1 X155.120 Y116.597 E13.97341
G1 X154.571 Y119.632 E14.06499
G1 X153.702 Y123.020 E14.16885
G1 X152.730 Y125.923 E14.25972
G1 X152.101 Y127.518 E14.31064
G1 X151.388 Y129.142 E14.36328
G1 X150.011 Y131.875 E14.45416
G1 X148.235 Y134.848 E14.55698
G1 X146.485 Y137.354 E14.64773
G1 X145.391 Y138.757 E14.70056
G1 X143.340 Y141.110 E14.79323
G1 X142.123 Y142.366 E14.84517
G1 X140.862 Y143.570 E14.89693
G1 X138.539 Y145.566 E14.98785
G1 X135.731 Y147.647 E15.09165
G1 X133.127 Y149.302 E15.18324
G1 X131.603 Y150.160 E15.23518
G1 X128.778 Y151.556 E15.32874
G1 X127.198 Y152.235 E15.37979
G1 X125.570 Y152.861 E15.43160
G1 X122.652 Y153.811 E15.52270
G1 X119.237 Y154.657 E15.62717
G1 X116.258 Y155.171 E15.71693
G1 X114.521 Y155.378 E15.76888
G1 X112.783 Y155.517 E15.82063
G1 X109.644 Y155.602 E15.91387
G1 X107.875 Y155.553 E15.96640
G1 X104.801 Y155.306 E16.05797
G1 X101.372 Y154.779 E16.16098
G1 X98.370 Y154.096 E16.25239
G1 X96.708 Y153.624 E16.30368
G1 X93.701 Y152.592 E16.39808
G1 X92.081 Y151.937 E16.44996
G1 X90.480 Y151.216 E16.50209
G1 X87.680 Y149.770 E16.59565
G1 X86.192 Y148.896 E16.64689
G1 X83.644 Y147.217 E16.73749
G1 X80.848 Y145.071 E16.84214
G1 X78.564 Y143.039 E16.93293
G1 X77.329 Y141.820 E16.98445
G1 X76.148 Y140.559 E17.03574
G1 X74.174 Y138.219 E17.12666
G1 X72.103 Y135.372 E17.23117
G1 X70.504 Y132.801 E17.32107
G1 X69.657 Y131.268 E17.37306
G1 X68.274 Y128.407 E17.46741
G1 X67.609 Y126.822 E17.51847
G1 X66.998 Y125.188 E17.57027
G1 X66.075 Y122.267 E17.66119
G1 X65.259 Y118.843 E17.76571
G1 X64.771 Y115.850 E17.85574
G1 X64.580 Y114.116 E17.90755
G1 X64.456 Y112.378 E17.95930
G1 X64.399 Y109.300 E18.05069
G1 X64.585 Y105.835 E18.15371
G1 X64.970 Y102.775 E18.24529
G1 X65.279 Y101.055 E18.29718
G1 X65.654 Y99.353 E18.34894
G1 X66.461 Y96.426 E18.43907
G1 X67.638 Y93.106 E18.54365
G1 X68.861 Y90.315 E18.63414
G1 X69.632 Y88.778 E18.68519
G1 X70.474 Y87.250 E18.73700
G1 X72.108 Y84.621 E18.82889
G1 X73.144 Y83.139 E18.88258
G1 X75.048 Y80.705 E18.97434
G1 X77.328 Y78.187 E19.07521
G1 E17.07521 F2400.00000
G92 E0
G1 X136.980 Y137.226 F4800.000
G1 E2.00000 F2400.00000
G1 F1800
G1 X135.985 Y138.178 E2.04086
G1 X134.957 Y139.092 E2.08172
G1 X133.897 Y139.969 E2.12258
G1 X132.805 Y140.808 E2.16345
G1 X131.685 Y141.607 E2.20431
G1 X130.536 Y142.365 E2.24517
G1 X129.361 Y143.082 E2.28603
G1 X128.161 Y143.755 E2.32689
G1 X126.938 Y144.386 E2.36775
G1 X125.693 Y144.972 E2.40861
G1 X124.427 Y145.512 E2.44948
G1 X123.143 Y146.008 E2.49034
G1 X121.842 Y146.456 E2.53120
G1 X120.526 Y146.858 E2.57206
G1 X119.196 Y147.212 E2.61292
G1 X117.854 Y147.518 E2.65378
G1 X116.530 Y147.771 E2.69382
G1 X115.142 Y147.986 E2.73551
G1 X113.775 Y148.146 E2.77637
G1 X112.404 Y148.257 E2.81723
G1 X111.029 Y148.318 E2.85809
G1 X109.653 Y148.331 E2.89895
G1 X108.277 Y148.294 E2.93981
G1 X106.904 Y148.207 E2.98067
G1 X105.534 Y148.072 E3.02153
G1 X104.170 Y147.887 E3.06240
G1 X102.814 Y147.653 E3.10326
G1 X101.467 Y147.371 E3.14412
G1 X100.131 Y147.041 E3.18498
G1 X98.808 Y146.663 E3.22584
G1 X97.499 Y146.238 E3.26670
G1 X96.206 Y145.766 E3.30756
G1 X94.931 Y145.248 E3.34843
G1 X93.676 Y144.684 E3.38929
G1 X92.441 Y144.076 E3.43015
G1 X91.229 Y143.424 E3.47101
G1 X90.042 Y142.729 E3.51187
G1 X88.880 Y141.991 E3.55273
G1 X87.768 Y141.228 E3.59277
G1 X86.639 Y140.393 E3.63447
G1 X85.563 Y139.536 E3.67532
G1 X84.518 Y138.639 E3.71618
G1 X83.507 Y137.706 E3.75704
G1 X82.529 Y136.738 E3.79790
G1 X81.587 Y135.734 E3.83876
G1 X80.682 Y134.698 E3.87962
G1 X79.814 Y133.630 E3.92049
G1 X78.985 Y132.531 E3.96135
G1 X78.196 Y131.403 E4.00221
G1 X77.449 Y130.248 E4.04307
G1 X76.757 Y129.091 E4.08310
G1 X76.080 Y127.861 E4.12480
G1 X75.461 Y126.632 E4.16565
G1 X74.886 Y125.381 E4.20651
G1 X74.356 Y124.111 E4.24738
G1 X73.873 Y122.823 E4.28824
G1 X73.445 Y121.544 E4.32827
G1 X73.046 Y120.198 E4.36997
G1 X72.704 Y118.865 E4.41082
G1 X72.409 Y117.520 E4.45168
G1 X72.169 Y116.194 E4.49172
G1 X71.967 Y114.804 E4.53341
G1 X71.819 Y113.436 E4.57427
G1 X71.720 Y112.063 E4.61513
G1 X71.671 Y110.688 E4.65599
G1 X71.671 Y109.312 E4.69685
G1 X71.720 Y107.937 E4.73771
G1 X71.819 Y106.564 E4.77857
G1 X71.967 Y105.196 E4.81944
G1 X72.164 Y103.834 E4.86030
G1 X72.409 Y102.480 E4.90116
G1 X72.698 Y101.162 E4.94119
G1 X73.046 Y99.802 E4.98289
G1 X73.436 Y98.482 E5.02374
G1 X73.873 Y97.177 E5.06460
G1 X74.356 Y95.889 E5.10546
G1 X74.886 Y94.619 E5.14633
G1 X75.461 Y93.368 E5.18719
G1 X76.080 Y92.139 E5.22805
G1 X76.743 Y90.933 E5.26891
G1 X77.449 Y89.752 E5.30977
G1 X78.196 Y88.597 E5.35063
G1 X78.969 Y87.492 E5.39067
G1 X79.814 Y86.370 E5.43236
G1 X80.682 Y85.302 E5.47322
G1 X81.587 Y84.266 E5.51408
G1 X82.510 Y83.283 E5.55411
G1 X83.507 Y82.293 E5.59581
G1 X84.518 Y81.361 E5.63666
G1 X85.542 Y80.483 E5.67670
G1 X86.639 Y79.606 E5.71839
G1 X87.745 Y78.787 E5.75925
G1 X88.880 Y78.009 E5.80011
G1 X90.018 Y77.286 E5.84014
G1 X91.230 Y76.576 E5.88184
G1 X92.441 Y75.924 E5.92269
G1 X93.676 Y75.316 E5.96355
G1 X94.931 Y74.752 E6.00441
G1 X96.206 Y74.234 E6.04528
G1 X97.499 Y73.762 E6.08614
G1 X98.808 Y73.337 E6.12700
G1 X100.131 Y72.959 E6.16786
G1 X101.440 Y72.635 E6.20789
G1 X102.814 Y72.347 E6.24959
G1 X104.170 Y72.113 E6.29044
G1 X105.534 Y71.928 E6.33130
G1 X106.904 Y71.793 E6.37217
G1 X108.277 Y71.706 E6.41303
G1 X109.653 Y71.669 E6.45389
G1 X111.001 Y71.681 E6.49392
G1 X112.404 Y71.743 E6.53562
G1 X113.775 Y71.854 E6.57647
G1 X115.142 Y72.015 E6.61733
G1 X116.503 Y72.224 E6.65820
G1 X117.854 Y72.482 E6.69906
G1 X119.196 Y72.788 E6.73992
G1 X120.526 Y73.142 E6.78078
G1 X121.842 Y73.544 E6.82164
G1 X123.117 Y73.983 E6.86168
G1 X124.428 Y74.488 E6.90337
G1 X125.693 Y75.028 E6.94422
G1 X126.938 Y75.614 E6.98509
G1 X128.161 Y76.245 E7.02595
G1 X129.361 Y76.918 E7.06681
G1 X130.536 Y77.635 E7.10767
G1 X131.662 Y78.378 E7.14770
G1 X132.806 Y79.192 E7.18940
G1 X133.897 Y80.031 E7.23025
G1 X134.957 Y80.908 E7.27112
G1 X135.985 Y81.822 E7.31198
G1 X136.980 Y82.774 E7.35284
G1 X137.940 Y83.760 E7.39370
G1 X138.864 Y84.780 E7.43456
G1 X139.751 Y85.832 E7.47542
G1 X140.599 Y86.916 E7.51628
G1 X141.408 Y88.029 E7.55715
G1 X142.176 Y89.171 E7.59801
G1 X142.903 Y90.339 E7.63887
G1 X143.588 Y91.533 E7.67973
G1 X144.229 Y92.751 E7.72059
G1 X144.814 Y93.966 E7.76063
G1 X145.378 Y95.252 E7.80232
G1 X145.885 Y96.531 E7.84317
G1 X146.345 Y97.828 E7.88404
G1 X146.750 Y99.114 E7.92407
G1 X147.125 Y100.467 E7.96577
G1 X147.443 Y101.806 E8.00662
G1 X147.713 Y103.155 E8.04748
G1 X147.935 Y104.514 E8.08834
G1 X148.107 Y105.879 E8.12920
G1 X148.230 Y107.250 E8.17007
G1 X148.305 Y108.624 E8.21093
G1 X148.329 Y110.000 E8.25179
G1 X148.305 Y111.376 E8.29265
G1 X148.232 Y112.722 E8.33268
G1 X148.107 Y114.121 E8.37438
G1 X147.935 Y115.486 E8.41523
G1 X147.713 Y116.845 E8.45610
G1 X147.443 Y118.194 E8.49696
G1 X147.125 Y119.533 E8.53782
G1 X146.759 Y120.859 E8.57868
G1 X146.345 Y122.172 E8.61954
G1 X145.885 Y123.469 E8.66040
G1 X145.378 Y124.749 E8.70126
G1 X144.826 Y126.009 E8.74212
G1 X144.229 Y127.249 E8.78299
G1 X143.588 Y128.467 E8.82385
G1 X142.903 Y129.661 E8.86471
G1 X142.176 Y130.829 E8.90557
G1 X141.423 Y131.948 E8.94560
G1 X140.599 Y133.085 E8.98730
G1 X139.751 Y134.168 E9.02815
G1 X138.864 Y135.220 E9.06902
G1 X137.940 Y136.240 E9.10988
G1 X137.022 Y137.183 E9.14896
G1 X137.231 Y137.480 F4800.000
G1 F1800
G1 X136.227 Y138.440 E9.19020
G1 X135.190 Y139.363 E9.23144
G1 X134.119 Y140.249 E9.27268
G1 X133.018 Y141.095 E9.31393
G1 X131.887 Y141.901 E9.35517
G1 X130.728 Y142.667 E9.39641
G1 X129.542 Y143.390 E9.43765
G1 X128.331 Y144.070 E9.47889
G1 X127.096 Y144.706 E9.52014
G1 X125.839 Y145.297 E9.56138
G1 X124.562 Y145.843 E9.60262
G1 X123.266 Y146.343 E9.64386
G1 X121.953 Y146.796 E9.68510
G1 X120.624 Y147.201 E9.72635
G1 X119.282 Y147.559 E9.76759
G1 X117.928 Y147.868 E9.80883
G1 X116.591 Y148.123 E9.84924
G1 X115.190 Y148.339 E9.89132
G1 X113.811 Y148.501 E9.93256
G1 X112.426 Y148.613 E9.97380
G1 X111.039 Y148.675 E10.01504
G1 X109.650 Y148.688 E10.05628
G1 X108.261 Y148.651 E10.09753
G1 X106.875 Y148.563 E10.13877
G1 X105.492 Y148.426 E10.18001
G1 X104.116 Y148.240 E10.22125
G1 X102.747 Y148.004 E10.26249
G1 X101.388 Y147.719 E10.30374
G1 X100.039 Y147.386 E10.34498
G1 X98.704 Y147.005 E10.38622
G1 X97.383 Y146.575 E10.42746
G1 X96.078 Y146.099 E10.46870
G1 X94.791 Y145.576 E10.50995
G1 X93.524 Y145.007 E10.55119
G1 X92.278 Y144.393 E10.59243
G1 X91.054 Y143.735 E10.63367
G1 X89.856 Y143.034 E10.67491
G1 X88.683 Y142.289 E10.71616
G1 X87.561 Y141.519 E10.75657
G1 X86.421 Y140.677 E10.79865
G1 X85.335 Y139.811 E10.83988
G1 X84.281 Y138.906 E10.88113
G1 X83.260 Y137.965 E10.92237
G1 X82.273 Y136.987 E10.96361
G1 X81.323 Y135.974 E11.00485
G1 X80.409 Y134.928 E11.04609
G1 X79.533 Y133.850 E11.08734
G1 X78.696 Y132.741 E11.12858
G1 X77.900 Y131.603 E11.16982
G1 X77.145 Y130.437 E11.21106
G1 X76.447 Y129.268 E11.25147
G1 X75.764 Y128.027 E11.29355
G1 X75.139 Y126.787 E11.33479
G1 X74.559 Y125.525 E11.37603
G1 X74.024 Y124.243 E11.41727
G1 X73.536 Y122.942 E11.45851
G1 X73.104 Y121.652 E11.49893
G1 X72.702 Y120.293 E11.54100
G1 X72.356 Y118.947 E11.58224
G1 X72.059 Y117.591 E11.62348
G1 X71.816 Y116.251 E11.66389
G1 X71.612 Y114.849 E11.70597
G1 X71.463 Y113.468 E11.74721
G1 X71.363 Y112.083 E11.78845
G1 X71.314 Y110.695 E11.82969
G1 X71.314 Y109.305 E11.87093
G1 X71.363 Y107.917 E11.91218
G1 X71.463 Y106.532 E11.95342
G1 X71.612 Y105.151 E11.99466
G1 X71.811 Y103.776 E12.03590
G1 X72.059 Y102.409 E12.07714
G1 X72.350 Y101.080 E12.11756
G1 X72.702 Y99.707 E12.15963
G1 X73.095 Y98.375 E12.20087
G1 X73.536 Y97.058 E12.24211
G1 X74.024 Y95.757 E12.28335
G1 X74.559 Y94.475 E12.32460
G1 X75.139 Y93.213 E12.36584
G1 X75.764 Y91.973 E12.40708
G1 X76.433 Y90.756 E12.44832
G1 X77.145 Y89.563 E12.48957
G1 X77.900 Y88.397 E12.53081
G1 X78.680 Y87.282 E12.57122
G1 X79.533 Y86.150 E12.61330
G1 X80.409 Y85.072 E12.65453
G1 X81.323 Y84.026 E12.69578
G1 X82.254 Y83.034 E12.73619
G1 X83.260 Y82.035 E12.77826
G1 X84.281 Y81.094 E12.81950
G1 X85.314 Y80.207 E12.85991
G1 X86.421 Y79.323 E12.90199
G1 X87.538 Y78.497 E12.94323
G1 X88.683 Y77.711 E12.98447
G1 X89.832 Y76.981 E13.02488
G1 X91.055 Y76.265 E13.06696
G1 X92.278 Y75.607 E13.10820
G1 X93.524 Y74.993 E13.14944
G1 X94.791 Y74.424 E13.19068
G1 X96.078 Y73.901 E13.23192
G1 X97.383 Y73.425 E13.27316
G1 X98.704 Y72.995 E13.31441
G1 X100.039 Y72.614 E13.35565
G1 X101.360 Y72.287 E13.39606
G1 X102.747 Y71.996 E13.43814
G1 X104.116 Y71.760 E13.47937
G1 X105.492 Y71.574 E13.52062
G1 X106.875 Y71.437 E13.56186
G1 X108.261 Y71.349 E13.60310
G1 X109.650 Y71.312 E13.64434
G1 X111.011 Y71.324 E13.68475
G1 X112.426 Y71.387 E13.72683
G1 X113.811 Y71.499 E13.76807
